X:1
T:Title
%%score ( 1 2 3 ) ( 4 5 6 )
L:1/8
Q:1/4=113
M:6/8
K:G
V:1 treble nm="Grand Piano, Staff 1"
V:2 treble 
V:3 treble 
V:4 bass nm="Choir Pad, Children�s Voices"
V:5 bass 
V:6 bass 
V:1
 [DB] [Ec]2 [DB] [CA]2 | [DB] G2- G- [CG]2 | [DF] E2 F G2 | .A3 z B,2 | [B,G] [Ec]2 [DB] [CA]2 | %5
w: By~Edward~John~Hopkins~(1818\-1901) * * *|||||
 [DB] [B,G]2 [^CB] [DA]2 | [DF] G2 F E2 | [^CF] D2- D2- D/ z/ | z A2- [E-A]/E/ [Dd]2 | %9
w: ||||
 z B2- B z z | z3 z .B2 | z6 | z .B2 z3 | z6 |] %14
w: |||||
V:2
 x6 | z B,2- B, z z | x6 | z D2- D2- D/ z/ | x6 | x6 | z B,2- B,3 | x6 | z F2 z3 | %9
 [CA] B,2- B,- [B,G]2 | [B,G] [Gc]2 [Ad]D-[DA] | [DG] [=Fd]2 [Ge] [Ec]2- | %12
 [Ec]B,-[B,A] [^CG] [DA]2- | [DA] [B,G]2- [B,G]2- [B,G]/ z/ |] %14
V:3
 x6 | x6 | z D2- D/ z/ C2- | C6 | x6 | x6 | x6 | x6 | x6 | x6 | x6 | x6 | x6 | x6 |] %14
V:4
 z6 | z G,2- G,3 | [B,,G,] G,2- [D,G,-] [E,G,]2 | [D,F,] G,2- G, G,,2 | %4
 [G,,D,] G,,2- [G,,-D,] [G,,-E,]2 | [G,,-F,] [G,,G,]2 [E,G,] [F,A,]2 | z3 z G,2- | G,3 z3 | %8
 z C2- [E,-C]/E,/ [F,A,]2 | [D,F,] G,2- G,/ z/ G,,2 | [G,,D,] G,,2- [G,,F,-]/F,/G,A, | %11
 [D,B,] G,2- [G,,G,-] [C,G,]2- | [C,G,] G,2- G,3 | F, [G,,G,]2- [G,,G,]2- [G,,G,]/ z/ |] %14
V:5
 G, G,2 D, F,2 | .D,3 G,, A,,2 | z C,2 z3 | x6 | z C,2 z3 | x6 | [B,,B,] B,2 .A,3 | %7
 A,, [D,F,]2- [D,F,]2- [D,F,]/ z/ | z D,2 z3 | x6 | z E,2 z G,,2 | z B,,2 z3 | z E,2- E, D,2- | %13
 D,3 z3 |] %14
V:6
 z G,,2- G,,3- | G,,3 z3 | x6 | x6 | x6 | x6 | z E,2- E,3 | x6 | x6 | x6 | x6 | x6 | x6 | x6 |] %14

